src/resources/assets/channel.svg

<svg xmlns="http://www.w3.org/2000/svg" width="16" height="16"><g fill="#ddd"><path d="M 2.5 6.550781 C 2.316406 6.550781 2.148438 6.5 2 6.414062 C 1.703125 6.242188 1.5 5.921875 1.5 5.550781 C 1.5 5.183594 1.703125 4.859375 2 4.6875 C 2.148438 4.601562 2.316406 4.554688 2.5 4.554688 C 2.683594 4.554688 2.851562 4.601562 3 4.6875 C 3.296875 4.859375 3.5 5.183594 3.5 5.550781 C 3.5 5.921875 3.296875 6.242188 3 6.414062 C 2.851562 6.5 2.683594 6.550781 2.5 6.550781 Z M 2.5 6.550781"/><path d="M 2.175781 3.578125 C 2.28125 3.5625 2.390625 3.554688 2.5 3.554688 C 2.761719 3.554688 3.007812 3.601562 3.234375 3.691406 C 3.503906 3.277344 3.96875 3 4.5 3 L 11.5 3 C 12.328125 3 13 3.671875 13 4.5 L 13 11.5 C 13 12.328125 12.328125 13 11.5 13 L 4.5 13 C 3.671875 13 3 12.328125 3 11.5 L 3 7.488281 C 2.839844 7.527344 2.671875 7.550781 2.5 7.550781 C 2.328125 7.550781 2.160156 7.527344 2 7.488281 L 2 11.5 C 2 12.878906 3.121094 14 4.5 14 L 11.5 14 C 12.882812 14 14 12.878906 14 11.5 L 14 4.5 C 14 3.121094 12.882812 2 11.5 2 L 4.5 2 C 3.445312 2 2.542969 2.652344 2.175781 3.578125 Z M 2.175781 3.578125"/><path d="M 6 6 C 5.722656 6 5.5 6.222656 5.5 6.5 C 5.5 6.777344 5.722656 7 6 7 L 10 7 C 10.277344 7 10.5 6.777344 10.5 6.5 C 10.5 6.222656 10.277344 6 10 6 Z M 6 9 C 5.722656 9 5.5 9.222656 5.5 9.5 C 5.5 9.777344 5.722656 10 6 10 L 8.613281 10 C 8.890625 10 9.113281 9.777344 9.113281 9.5 C 9.113281 9.222656 8.890625 9 8.613281 9 Z M 6 9"/></g></svg>

<svg xmlns="http://www.w3.org/2000/svg" width="16" height="16"><g fill="#ddd"><path d="M2.5 6.55a.989.989 0 01-.5-.136.997.997 0 111-1.726.997.997 0 010 1.727.989.989 0 01-.5.136zm0 0"/><path d="M2.176 3.578c.105-.015.215-.023.324-.023.262 0 .508.047.734.136A1.51 1.51 0 014.5 3h7A1.5 1.5 0 0113 4.5v7a1.5 1.5 0 01-1.5 1.5h-7A1.5 1.5 0 013 11.5V7.488c-.16.04-.328.063-.5.063s-.34-.024-.5-.063V11.5C2 12.879 3.121 14 4.5 14h7a2.5 2.5 0 002.5-2.5v-7A2.5 2.5 0 0011.5 2h-7a2.5 2.5 0 00-2.324 1.578zm0 0"/><path d="M6 6c-.277 0-.5.223-.5.5s.223.5.5.5h4c.277 0 .5-.223.5-.5S10.277 6 10 6zm0 3c-.277 0-.5.223-.5.5s.223.5.5.5h2.613c.278 0 .5-.223.5-.5s-.222-.5-.5-.5zm0 0"/></g></svg>
